assets/icons/manual-book.svg

<svg width="26" height="25" viewBox="0 0 26 25" fill="none" xmlns="http://www.w3.org/2000/svg">
<g id="manual-book">
<path id="iconDefault" fill-rule="evenodd" clip-rule="evenodd" d="M1.90572 1.98415C1.90572 1.78833 1.96667 1.66584 2.03396 1.59562C2.09855 1.52822 2.20377 1.47217 2.37048 1.47066C5.43965 1.57023 7.7666 2.18613 9.30875 2.97285C10.0811 3.36688 10.6417 3.79605 11.0033 4.21038C11.3666 4.62672 11.5062 4.99977 11.5062 5.29641C11.5062 5.30388 11.5063 5.31131 11.5067 5.31869V15.4977C11.5067 15.7684 11.7261 15.9879 11.9969 15.9879C12.2676 15.9879 12.4871 15.7684 12.4871 15.4977V5.27252L12.487 5.26861C12.4966 4.99162 12.6483 4.63303 13.0321 4.22307C13.4242 3.80422 14.0232 3.37178 14.8231 2.97543C16.4191 2.18469 18.7496 1.57012 21.6227 1.47066C21.7892 1.47227 21.8942 1.52828 21.9588 1.59562C22.0261 1.66584 22.087 1.78833 22.087 1.98415V15.0325C22.087 15.3032 22.3065 15.5227 22.5772 15.5227C22.8479 15.5227 23.0674 15.3032 23.0674 15.0325V1.98415C23.0674 1.57774 22.936 1.19837 22.6666 0.917283C22.3954 0.634319 22.0217 0.490234 21.6153 0.490234L21.5986 0.490521C18.6084 0.592821 16.1328 1.23242 14.3879 2.09695C13.5165 2.52867 12.811 3.02467 12.3163 3.55307C12.2065 3.67041 12.1052 3.79145 12.0141 3.91566C11.9324 3.79648 11.8414 3.6797 11.742 3.56577C11.2769 3.03283 10.6051 2.53357 9.75427 2.09953C8.05149 1.23087 5.57195 0.592549 2.39315 0.490487L2.37741 0.490234C1.97101 0.490234 1.5973 0.634319 1.32612 0.917283C1.05675 1.19837 0.925323 1.57774 0.925323 1.98415V16.2369C0.925323 16.64 1.11403 17.0072 1.36219 17.2661C1.60794 17.5226 1.96664 17.7289 2.37174 17.7308C4.50383 17.7748 6.27097 18.0893 7.66799 18.5388C7.9257 18.6218 8.20184 18.4801 8.28477 18.2224C8.36769 17.9646 8.226 17.6885 7.96829 17.6056C6.46943 17.1233 4.60528 16.7959 2.38744 16.7505L2.37741 16.7504C2.30389 16.7504 2.18384 16.7066 2.07003 16.5878C1.95748 16.4704 1.90572 16.3357 1.90572 16.2369V1.98415ZM15.4521 11.3631V21.2927C15.4521 21.4985 15.3235 21.6824 15.1302 21.7531C14.9368 21.8237 14.72 21.7661 14.5872 21.6088L12.1875 18.7647L12.1865 18.7635C12.0208 18.5707 11.7549 18.441 11.4565 18.4129C11.1576 18.3847 10.8733 18.4628 10.6756 18.6232C10.2582 18.9618 10.193 19.6601 10.5272 20.0553L13.3429 23.2026C13.5234 23.4043 13.5062 23.7142 13.3045 23.8947C13.1027 24.0752 12.7928 24.058 12.6123 23.8563L9.79254 20.7045L9.78547 20.6964C9.07882 19.8709 9.22329 18.539 10.0579 17.8619C10.4868 17.5139 11.038 17.3887 11.5484 17.4368C12.0587 17.4849 12.5757 17.7105 12.9323 18.1271L12.9345 18.1298L14.4717 19.9516V11.329C14.4717 11.3081 14.473 11.2872 14.4757 11.2665C14.6083 10.2334 15.5266 9.31372 16.6328 9.31372C17.7266 9.31372 18.6896 10.2326 18.6896 11.329V17.4473H21.3324C23.8882 17.4473 26 19.4846 26 22.0044V23.5294C26 23.8001 25.7805 24.0196 25.5098 24.0196C25.2391 24.0196 25.0196 23.8001 25.0196 23.5294V22.0044C25.0196 20.0506 23.3717 18.4277 21.3324 18.4277H18.1994C17.9286 18.4277 17.7092 18.2083 17.7092 17.9375V11.329C17.7092 10.7987 17.2101 10.2941 16.6328 10.2941C16.0771 10.2941 15.5416 10.7819 15.4521 11.3631Z" fill="#18303F"/>
</g>
</svg>

<svg width="26" height="25" viewBox="0 0 26 25" fill="none"><g id="manual-book"><path id="iconDefault" fill-rule="evenodd" clip-rule="evenodd" d="M1.906 1.984c0-.196.06-.318.128-.388.065-.068.17-.124.336-.125 3.07.1 5.397.715 6.939 1.502.772.394 1.333.823 1.694 1.237.364.417.503.79.503 1.086v10.202a.49.49 0 1 0 .981 0V5.269c.01-.277.161-.636.545-1.046.392-.419.991-.851 1.791-1.248 1.596-.79 3.927-1.405 6.8-1.504.166.001.271.057.336.125.067.07.128.192.128.388v13.049a.49.49 0 0 0 .98 0V1.984c0-.406-.131-.786-.4-1.067A1.43 1.43 0 0 0 21.615.49H21.6c-2.99.103-5.466.742-7.211 1.607-.871.432-1.577.928-2.072 1.456-.11.117-.21.238-.302.363a3.811 3.811 0 0 0-.272-.35c-.465-.533-1.137-1.032-1.988-1.466C8.051 1.23 5.572.593 2.394.49h-.017c-.406 0-.78.144-1.05.427-.27.281-.402.66-.402 1.067v14.253c0 .403.189.77.437 1.03.246.256.605.462 1.01.464 2.132.044 3.899.358 5.296.808a.49.49 0 1 0 .3-.933c-1.499-.483-3.363-.81-5.58-.856h-.01c-.074 0-.194-.043-.308-.162a.542.542 0 0 1-.164-.351V1.984Zm13.546 9.38v9.929a.49.49 0 0 1-.865.316l-2.4-2.844v-.002a1.098 1.098 0 0 0-.73-.35c-.3-.028-.584.05-.781.21-.418.339-.483 1.037-.149 1.432l2.816 3.148a.49.49 0 1 1-.73.653l-2.82-3.152-.008-.008c-.706-.825-.562-2.157.273-2.834.429-.348.98-.473 1.49-.425.51.048 1.028.273 1.384.69l.002.003 1.538 1.822v-8.623c0-.02.001-.042.004-.063.132-1.033 1.05-1.952 2.157-1.952 1.094 0 2.057.919 2.057 2.015v6.118h2.642c2.556 0 4.668 2.038 4.668 4.557v1.525a.49.49 0 0 1-.98 0v-1.525c0-1.953-1.648-3.576-3.688-3.576H18.2a.49.49 0 0 1-.49-.49v-6.609c0-.53-.499-1.035-1.076-1.035-.556 0-1.091.488-1.18 1.07Z" fill="#18303F"/></g></svg>
